app/style/graphics/spriteSheets/characters/pacman/arrow_right.svg

<?xml version="1.0" encoding="UTF-8"?><svg id="Calque_1" xmlns="http://www.w3.org/2000/svg" viewBox="0 0 32 32"><defs><style>.cls-1{fill:#68ace5;}</style></defs><path class="cls-1" d="M26,13h-1v5h1v-1h1v-1h1v-1h-1v-1h-1v-1Z"/></svg>

<svg width="32" height="32" viewBox="0 0 32 32" fill="none" xmlns="http://www.w3.org/2000/svg">
<path d="M26 13H25V18H26V17H27V16H28V15H27V14H26V13Z" fill="#FFF295"/>
</svg>
